X: 42613
T: Whinny Hills Of Leitrim, The
R: slip jig
M: 9/8
K: Dmajor
FAA FAB AFD|FAA ded B2z|FAA FAB AFD|efd edc B2z:|
~f3 efe ded|~f3 def gzb|afd gfe dBA|BAF EFA B2z:|

